X: 20842
T: Johnny's Wedding
R: reel
M: 4/4
K: Edorian
GEBE GEBE|FDDE FGAF|GEBE GEBE|FEDF E2 EF|
GEBE GEBE|FDDE FGAF|G2EF GABc|d/c/BAF E2ef||
gfed edBc|dBAG FDDf|gfed edBA|B/c/def e2ef|
gfed edBc|dBAG FDD2|EGFA GBAc|d/c/BAF E2EF||

